X: 1
T: Crow Flies High
P: piffero primo a0805
O: Dave Gregory
%R: reel
F: http://ancients.sudburymuster.org/mus/sng/pdf/crowflieshiC0.pdf
Z: 2020 John Chambers <jc:trillian.mit.edu>
M: 2/4
L: 1/16
K: Bm
fe |\
dBFB cdcB | A{B}Ace a2fe | d2f2 ecAc | dBFB d2ed |\
BFBd cAce | dfcf dcBF | dfed cAdc | B2BA B2 :|
|: (3ABc |\
d2dc dfed | eAfe d2fg | a2fe dfed | e2A2 A2fe |\
dBFB dfcf | BdcB A2Bc | dafd cAdc | B2BA B2 :|
